tools/download-figma-icons/icons/solid/motorcycle.svg

<svg width="24" height="24" viewBox="0 0 24 24" fill="none" xmlns="http://www.w3.org/2000/svg">
<path d="M19.5003 11.2457C18.8853 11.2457 18.2929 11.3732 17.7529 11.5982C17.4304 10.8332 17.1529 10.0458 16.913 9.28834C17.2954 9.52082 17.8654 9.70081 18.7203 9.73831C19.1478 9.75331 19.5003 9.40833 19.5003 8.98086V7.50345C19.5003 7.07598 19.1478 6.731 18.7203 6.746C17.3704 6.806 16.7255 7.23347 16.4105 7.61594C16.328 7.30096 16.2455 7.00098 16.163 6.716C15.653 4.82612 15.4581 4.11367 14.8581 3.88868C13.4707 3.36372 11.7683 4.48864 11.5808 4.62364C11.2358 4.85612 11.1533 5.32109 11.3858 5.66607C11.6183 6.00355 12.0833 6.09354 12.4282 5.86106C12.7807 5.62107 13.6132 5.2011 14.1606 5.2536C14.3031 5.59107 14.5206 6.39352 14.7156 7.10598C11.3858 7.32346 10.2534 8.81587 9.87841 9.61831C7.86104 10.0458 7.12608 8.80087 7.05109 8.65838C7.02859 8.62088 7.00609 8.58338 6.98359 8.54588C6.8861 8.41089 5.93366 7.23347 3.09134 7.51845C0.893985 7.74344 -0.0434547 8.83837 0.00154239 9.8208C0.03904 10.5933 0.713997 11.4782 2.39389 11.7707C0.97648 12.5356 0.0090419 14.028 0.0090419 15.7454C0.0090419 18.2278 2.02641 20.2526 4.50125 20.2526C6.60112 20.2526 8.36351 18.8052 8.85847 16.8628C9.41344 17.0578 10.1859 17.2378 11.1458 17.2378C11.8958 17.2378 12.7507 17.1328 13.7182 16.8403C14.0631 16.7429 14.2806 16.4054 14.2506 16.0529C14.2431 16.0229 14.0256 13.2706 16.178 11.7107C16.268 11.9507 16.3655 12.1906 16.4705 12.4306C15.5705 13.2481 15.0006 14.433 15.0006 15.7454C15.0006 18.2278 17.018 20.2526 19.5003 20.2526C21.9826 20.2526 24 18.2278 24 15.7454C24 13.2631 21.9826 11.2457 19.5003 11.2457ZM4.50125 17.2453C5.05622 17.2453 5.53619 16.9453 5.79867 16.4954H7.39607C7.06609 17.7853 5.89616 18.7527 4.50125 18.7527C2.85136 18.7527 1.50895 17.4028 1.50895 15.7454C1.50895 14.088 2.85136 12.7456 4.50125 12.7456C5.89616 12.7456 7.06609 13.7056 7.39607 14.9955H5.79867C5.53619 14.553 5.05622 14.2455 4.50125 14.2455C3.67631 14.2455 3.00885 14.9205 3.00885 15.7454C3.00885 16.5779 3.67631 17.2453 4.50125 17.2453ZM19.5003 18.7527C17.8504 18.7527 16.5005 17.4028 16.5005 15.7454C16.5005 15.033 16.763 14.3805 17.1829 13.863C17.4604 14.358 17.7604 14.8305 18.0829 15.2655C18.0379 15.4229 18.0004 15.5804 18.0004 15.7454C18.0004 16.5779 18.6753 17.2453 19.5003 17.2453C20.3327 17.2453 21.0002 16.5779 21.0002 15.7454C21.0002 14.9205 20.3327 14.2455 19.5003 14.2455C19.4028 14.2455 19.3128 14.2605 19.2228 14.2755C18.9228 13.8705 18.6528 13.4281 18.4054 12.9631C18.7428 12.8281 19.1103 12.7456 19.5003 12.7456C21.1577 12.7456 22.5001 14.088 22.5001 15.7454C22.5001 17.4028 21.1577 18.7527 19.5003 18.7527Z" fill="black"/>
</svg>

<svg xmlns="http://www.w3.org/2000/svg" width="24" height="24" fill="none" viewBox="0 0 24 24"><path fill="currentColor" d="M19.5 11.246c-.615 0-1.207.127-1.747.352-.323-.765-.6-1.552-.84-2.31.382.233.952.413 1.807.45.428.015.78-.33.78-.757V7.503a.756.756 0 0 0-.78-.757c-1.35.06-1.994.487-2.31.87a37 37 0 0 0-.247-.9c-.51-1.89-.705-2.602-1.305-2.827-1.387-.525-3.09.6-3.277.735a.75.75 0 0 0-.195 1.042.754.754 0 0 0 1.042.195c.353-.24 1.185-.66 1.733-.607.142.337.36 1.14.555 1.852-3.33.217-4.463 1.71-4.838 2.512-2.017.428-2.752-.817-2.827-.96l-.067-.112c-.098-.135-1.05-1.313-3.893-1.028-2.197.225-3.134 1.32-3.09 2.303.038.772.713 1.657 2.393 1.95a4.52 4.52 0 0 0-2.385 3.974c0 2.483 2.017 4.508 4.492 4.508 2.1 0 3.863-1.448 4.357-3.39a6.9 6.9 0 0 0 2.288.375c.75 0 1.605-.105 2.572-.398a.75.75 0 0 0 .533-.787c-.008-.03-.225-2.782 1.927-4.342q.135.36.293.72A4.47 4.47 0 0 0 15 15.745a4.51 4.51 0 0 0 4.5 4.508 4.503 4.503 0 0 0 0-9.007m-14.999 6c.555 0 1.035-.3 1.298-.75h1.597a3 3 0 0 1-2.895 2.257 3.004 3.004 0 0 1-2.992-3.008c0-1.657 1.342-3 2.992-3 1.395 0 2.565.96 2.895 2.25H5.8a1.51 1.51 0 0 0-1.298-.75c-.825 0-1.492.676-1.492 1.5 0 .833.667 1.5 1.492 1.5m15 1.507c-1.65 0-3-1.35-3-3.008 0-.712.262-1.364.682-1.882.277.495.577.968.9 1.402a1.7 1.7 0 0 0-.083.48 1.5 1.5 0 0 0 1.5 1.5c.833 0 1.5-.667 1.5-1.5a1.5 1.5 0 0 0-1.5-1.5c-.097 0-.187.016-.277.03-.3-.405-.57-.847-.818-1.312a2.9 2.9 0 0 1 1.095-.217c1.658 0 3 1.342 3 3a3.005 3.005 0 0 1-3 3.007"/></svg>
